liquid-spot.svg

<svg fill="currentColor" viewBox="0 0 24 24"><path d="M18.14 16.7c-.91 1.51-2.06 1.03-3.14.39s-2.1-1.41-2.75-.5c-.71.78-.16 2.03.12 3.13.28 1.11.3 2.07-1.47 2.28-1.4-.19-1.32-1.35-1.09-2.58s.59-2.53-.31-2.99c-.72-.48-1.22.35-1.85 1.17-.65.81-1.39 1.6-2.61 1.02-1.1-.91-.68-1.44-.1-2.12s1.33-1.59.9-3.19c-.18-.65-1.08-.5-1.97-.52-.87-.02-1.75-.2-1.84-1.5-.07-.79.52-1.11 1.13-1.36.62-.25 1.25-.43 1.26-1.06.03-.61-.38-1.04-.64-1.49s-.37-.92.25-1.62c1.05-.86 1.89-.13 2.73.66s1.67 1.62 2.7.97c.82-.54.07-1.49-.51-2.42s-.99-1.82.51-2.23c1.3-.36 1.8.53 2.25 1.56.46 1.03.86 2.2 1.96 2.41 1.57.29 2.71-1.55 3.8-3.01s2.16-2.55 3.53-.75c1.5 1.89.07 2.77-1.6 3.55-1.67.73-3.59 1.37-3.13 2.78.27.82 1.15.37 2.08.06.92-.31 1.91-.48 2.39.93.51 1.49-.7 1.83-2.06 1.97s-2.88.08-2.98.76c-.11.71.8 1 1.59 1.42.79.43 1.46 1 .85 2.28M20.5 19c-.95 0-1.44-.74-1.44-1.5s.48-1.5 1.44-1.5c1 0 1.5.74 1.5 1.5s-.5 1.5-1.5 1.5"/></svg>

<svg  viewBox="0 0 24 24" fill="currentColor"><path  d="M18.14 16.7C17.23 18.21 16.08 17.73 15 17.09S12.9 15.68 12.25 16.59C11.54 17.37 12.09 18.62 12.37 19.72C12.65 20.83 12.67 21.79 10.9 22C9.5 21.81 9.58 20.65 9.81 19.42C10.04 18.19 10.4 16.89 9.5 16.43C8.78 15.95 8.28 16.78 7.65 17.6C7 18.41 6.26 19.2 5.04 18.62C3.94 17.71 4.36 17.18 4.94 16.5S6.27 14.91 5.84 13.31C5.66 12.66 4.76 12.81 3.87 12.79C3 12.77 2.12 12.59 2.03 11.29C1.96 10.5 2.55 10.18 3.16 9.93C3.78 9.68 4.41 9.5 4.42 8.87C4.45 8.26 4.04 7.83 3.78 7.38S3.41 6.46 4.03 5.76C5.08 4.9 5.92 5.63 6.76 6.42S8.43 8.04 9.46 7.39C10.28 6.85 9.53 5.9 8.95 4.97S7.96 3.15 9.46 2.74C10.76 2.38 11.26 3.27 11.71 4.3C12.17 5.33 12.57 6.5 13.67 6.71C15.24 7 16.38 5.16 17.47 3.7S19.63 1.15 21 2.95C22.5 4.84 21.07 5.72 19.4 6.5C17.73 7.23 15.81 7.87 16.27 9.28C16.54 10.1 17.42 9.65 18.35 9.34C19.27 9.03 20.26 8.86 20.74 10.27C21.25 11.76 20.04 12.1 18.68 12.24C17.32 12.38 15.8 12.32 15.7 13C15.59 13.71 16.5 14 17.29 14.42C18.08 14.85 18.75 15.42 18.14 16.7M20.5 19C19.55 19 19.06 18.26 19.06 17.5C19.06 16.74 19.54 16 20.5 16C21.5 16 22 16.74 22 17.5C22 18.26 21.5 19 20.5 19Z"/></svg>
